public/images/chat-bots-icon.svg

<?xml version="1.0" encoding="UTF-8"?>
<svg width="69px" height="86px" viewBox="0 0 69 86" version="1.1" xmlns="http://www.w3.org/2000/svg" xmlns:xlink="http://www.w3.org/1999/xlink">
    <!-- Generator: Sketch 48.2 (47327) - http://www.bohemiancoding.com/sketch -->
    <title>chat-bots-icon</title>
    <desc>Created with Sketch.</desc>
    <defs></defs>
    <g id="Page-1" stroke="none" stroke-width="1" fill="none" fill-rule="evenodd">
        <g id="chat-bots-icon" fill="#C9D0DA" fill-rule="nonzero">
            <path d="M40.45,3 L28.55,3 C30.7550075,5.07610375 32.0036158,7.97142745 32,11 C32.0036158,14.0285725 30.7550075,16.9238963 28.55,19 L40.45,19 C38.2449925,16.9238963 36.9963842,14.0285725 37,11 C36.9963842,7.97142745 38.2449925,5.07610375 40.45,3 Z M36,22 L36,25 L47,25 L47,51 L45,51 L45,60 L42,60 L42,51 L27,51 L27,60 L24,60 L24,51 L22,51 L22,25 L33,25 L33,22 L21,22 C14.925,22 10,17.075 10,11 C10,4.925 14.925,0 21,0 L48,0 C54.075,0 59,4.925 59,11 C59,17.075 54.075,22 48,22 L36,22 Z M9.646,46.765 L12.47,51 L17.384,51 L17.384,54 L12.06,54 L9.906,57.5 L12.06,61 L17.384,61 L17.384,64 L10.384,64 L6.384,57.5 L9.654,52.185 L6.827,47.944 C4.51150423,48.2641321 2.22087627,47.2103635 0.957358386,45.2437604 C-0.3061595,43.2771573 -0.312520735,40.7557758 0.941057978,38.7828223 C2.19463669,36.8098688 4.47991839,35.7445555 6.797,36.053 L8.061,33.525 C6.06789311,31.7896839 5.44484213,28.9546497 6.52669862,26.5435538 C7.6085551,24.1324579 10.140552,22.7130907 12.7618968,23.0482748 C15.3832416,23.3834589 17.4766322,25.3942615 17.917,28 L22,28 L22,31 L17.659,31 C16.6533373,33.8441838 13.6928084,35.4999567 10.743,34.868 L9.583,37.188 C11.1047525,38.3191431 12.0012084,40.1038951 12,42 C12.0014936,43.8685528 11.1309266,45.6307669 9.646,46.765 Z M62.174,47.944 L59.346,52.184 L62.617,57.5 L58.617,64 L51.617,64 L51.617,61 L56.941,61 L59.095,57.5 L56.94,54 L51.616,54 L51.616,51 L56.53,51 L59.353,46.765 C57.8684496,45.6305606 56.9982684,43.8683788 57,42 C57,40.03 57.95,38.281 59.417,37.187 L58.257,34.868 C55.3071916,35.4999567 52.3466627,33.8441838 51.341,31 L47,31 L47,28 L51.083,28 C51.6110826,24.9318056 54.3975089,22.7767518 57.4999135,23.0370861 C60.6023181,23.2974205 62.9906292,25.8867059 63,29 C63.0018236,30.7356541 62.250211,32.3866478 60.94,33.525 L62.203,36.052 C64.5200816,35.7435555 66.8053633,36.8088688 68.058942,38.7818223 C69.3125207,40.7547758 69.3061595,43.2761573 68.0426416,45.2427604 C66.7791237,47.2093635 64.4884958,48.2631321 62.173,47.943 L62.174,47.944 Z M49.539,77.906 C51.7253003,79.6100989 53.0025256,82.2280231 53,85 L53.0000037,86 L34.9999948,86 L35,85 C34.9972503,82.4384114 36.0888328,79.9976329 38,78.292 L38,60 L49.54,60 L49.54,77.906 L49.539,77.906 Z M31,78.292 C32.9111672,79.9976329 34.0027497,82.4384114 34,85 L34.0000052,86 L15.9999955,86 L16,85 C15.9972342,82.2281948 17.2740752,79.6103018 19.46,77.906 L19.46,60 L31,60 L31,78.292 Z M41,75.762 L46.54,75.762 L46.54,63 L41,63 L41,75.763 L41,75.762 Z M22.46,75.762 L28,75.762 L28,63 L22.46,63 L22.46,75.763 L22.46,75.762 Z M25,79 C22.456705,78.9996899 20.18933,80.6023583 19.341,83 L30.66,83 C29.8115477,80.6020122 27.543662,78.9992661 25,79 Z M44,79 C41.456705,78.9996899 39.18933,80.6023583 38.341,83 L49.66,83 C48.8115477,80.6020122 46.543662,78.9992661 44,79 Z M25,48 L44,48 L44,28 L25,28 L25,48 Z M63,45 C64.6568542,45 66,43.6568542 66,42 C66,40.3431458 64.6568542,39 63,39 C61.3431458,39 60,40.3431458 60,42 C60,43.6568542 61.3431458,45 63,45 Z M57,32 C58.6568542,32 60,30.6568542 60,29 C60,27.3431458 58.6568542,26 57,26 C55.3431458,26 54,27.3431458 54,29 C54,30.6568542 55.3431458,32 57,32 Z M12,32 C13.6568542,32 15,30.6568542 15,29 C15,27.3431458 13.6568542,26 12,26 C10.3431458,26 9,27.3431458 9,29 C9,30.6568542 10.3431458,32 12,32 Z M6,45 C7.65685425,45 9,43.6568542 9,42 C9,40.3431458 7.65685425,39 6,39 C4.34314575,39 3,40.3431458 3,42 C3,43.6568542 4.34314575,45 6,45 Z M28,31 L41,31 L41,34 L28,34 L28,31 Z M28,37 L41,37 L41,40 L28,40 L28,37 Z M21,3 C16.581722,3 13,6.581722 13,11 C13,15.418278 16.581722,19 21,19 C25.418278,19 29,15.418278 29,11 C29,6.581722 25.418278,3 21,3 Z M21,6 C23.7614237,6 26,8.23857625 26,11 C26,13.7614237 23.7614237,16 21,16 C18.2385763,16 16,13.7614237 16,11 C16,8.23857625 18.2385763,6 21,6 Z M21,9 C19.8954305,9 19,9.8954305 19,11 C19,12.1045695 19.8954305,13 21,13 C22.1045695,13 23,12.1045695 23,11 C23,9.8954305 22.1045695,9 21,9 Z M48,3 C43.581722,3 40,6.581722 40,11 C40,15.418278 43.581722,19 48,19 C52.418278,19 56,15.418278 56,11 C56,6.581722 52.418278,3 48,3 Z M48,6 C50.7614237,6 53,8.23857625 53,11 C53,13.7614237 50.7614237,16 48,16 C45.2385763,16 43,13.7614237 43,11 C43,8.23857625 45.2385763,6 48,6 Z M48,9 C46.8954305,9 46,9.8954305 46,11 C46,12.1045695 46.8954305,13 48,13 C49.1045695,13 50,12.1045695 50,11 C50,9.8954305 49.1045695,9 48,9 Z" id="Shape"></path>
        </g>
    </g>
</svg>

<svg xmlns="http://www.w3.org/2000/svg" width="69" height="86" viewBox="0 0 69 86">
    <path fill="#47C24C" fill-rule="nonzero" d="M40.45 3h-11.9A10.97 10.97 0 0 1 32 11a10.97 10.97 0 0 1-3.45 8h11.9A10.97 10.97 0 0 1 37 11a10.97 10.97 0 0 1 3.45-8zM36 22v3h11v26h-2v9h-3v-9H27v9h-3v-9h-2V25h11v-3H21c-6.075 0-11-4.925-11-11S14.925 0 21 0h27c6.075 0 11 4.925 11 11s-4.925 11-11 11H36zM9.646 46.765L12.47 51h4.914v3h-5.324l-2.154 3.5L12.06 61h5.324v3h-7l-4-6.5 3.27-5.315-2.827-4.241a6 6 0 1 1-.03-11.891l1.264-2.528A6 6 0 1 1 17.917 28H22v3h-4.341a6.002 6.002 0 0 1-6.916 3.868l-1.16 2.32A5.991 5.991 0 0 1 12 42a5.99 5.99 0 0 1-2.354 4.765zm52.528 1.179l-2.828 4.24 3.271 5.316-4 6.5h-7v-3h5.324l2.154-3.5L56.94 54h-5.324v-3h4.914l2.823-4.235A5.99 5.99 0 0 1 57 42c0-1.97.95-3.719 2.417-4.813l-1.16-2.319A6.002 6.002 0 0 1 51.341 31H47v-3h4.083A6.002 6.002 0 0 1 63 29a5.986 5.986 0 0 1-2.06 4.525l1.263 2.527a6 6 0 1 1-.03 11.891zM49.539 77.906A8.984 8.984 0 0 1 53 85v1H35v-1a8.978 8.978 0 0 1 3-6.708V60h11.54v17.906zM31 78.292A8.978 8.978 0 0 1 34 85v1H16v-1a8.984 8.984 0 0 1 3.46-7.094V60H31v18.292zm10-2.53h5.54V63H41v12.763zm-18.54 0H28V63h-5.54v12.763zM25 79a6.002 6.002 0 0 0-5.659 4H30.66A6.002 6.002 0 0 0 25 79zm19 0a6.002 6.002 0 0 0-5.659 4H49.66A6.002 6.002 0 0 0 44 79zM25 48h19V28H25v20zm38-3a3 3 0 1 0 0-6 3 3 0 0 0 0 6zm-6-13a3 3 0 1 0 0-6 3 3 0 0 0 0 6zm-45 0a3 3 0 1 0 0-6 3 3 0 0 0 0 6zM6 45a3 3 0 1 0 0-6 3 3 0 0 0 0 6zm22-14h13v3H28v-3zm0 6h13v3H28v-3zM21 3a8 8 0 1 0 0 16 8 8 0 0 0 0-16zm0 3a5 5 0 1 1 0 10 5 5 0 0 1 0-10zm0 3a2 2 0 1 0 0 4 2 2 0 0 0 0-4zm27-6a8 8 0 1 0 0 16 8 8 0 0 0 0-16zm0 3a5 5 0 1 1 0 10 5 5 0 0 1 0-10zm0 3a2 2 0 1 0 0 4 2 2 0 0 0 0-4z"/>
</svg>
